packages/atlas/src/components/_illustrations/svgs/bg-pattern.svg

<svg width="569" height="462" fill="none" xmlns="http://www.w3.org/2000/svg"><path d="M136.79 229.968H21.826V115.004H136.79v114.964zM482.142 459.978H367.178V345.014h114.964v114.964z" fill="#181C20"/><path d="M481.212 459.978h12.781v-12.782h-12.781v12.782zM494.696 447.162h12.782v-12.781h-12.782v12.781zM508.187 459.978h12.781v-12.782h-12.781v12.782zM481.212 434.346h12.781v-12.782h-12.781v12.782zM508.187 434.346h12.781v-12.782h-12.781v12.782zM518.984 447.162h12.782v-12.781h-12.782v12.781zM494.696 421.53h12.782v-12.78h-12.782v12.78zM481.212 408.715h12.781v-12.782h-12.781v12.782zM508.187 408.715h12.781v-12.782h-12.781v12.782zM518.984 421.53h12.782v-12.78h-12.782v12.78zM494.696 395.899h12.782v-12.781h-12.782v12.781zM481.212 383.756h12.781v-12.781h-12.781v12.781zM508.187 383.756h12.781v-12.781h-12.781v12.781z" fill="#181C20"/><path d="M518.984 395.899h12.782v-12.781h-12.782v12.781zM494.696 370.94h12.782v-12.781h-12.782v12.781zM481.212 358.124h12.781v-12.781h-12.781v12.781zM508.187 358.124h12.781v-12.781h-12.781v12.781zM518.984 370.94h12.782v-12.781h-12.782v12.781zM532.47 459.978h12.781v-12.782H532.47v12.782zM545.96 447.162h12.781v-12.781H545.96v12.781zM559.45 459.978h12.781v-12.782H559.45v12.782zM532.47 434.346h12.781v-12.782H532.47v12.782zM559.45 434.346h12.781v-12.782H559.45v12.782zM545.96 421.53h12.781v-12.78H545.96v12.78zM532.47 408.715h12.781v-12.782H532.47v12.782zM559.45 408.715h12.781v-12.782H559.45v12.782zM545.96 395.899h12.781v-12.781H545.96v12.781zM532.47 383.756h12.781v-12.781H532.47v12.781zM559.45 383.756h12.781v-12.781H559.45v12.781zM545.96 370.94h12.781v-12.781H545.96v12.781zM532.47 358.124h12.781v-12.781H532.47v12.781zM559.45 358.124h12.781v-12.781H559.45v12.781zM455.504 115.299H442.73V.335h12.774v114.964zM431.215 115.299h-12.773V.335h12.773v114.964zM404.24 115.299h-12.773V.335h12.773v114.964zM379.953 115.299h-12.775V.335h12.775v114.964zM482.486 115.299h-12.781V.335h12.781v114.964z" fill="#181C20"/><path d="M481.55 89.669h114.964V76.895H481.55v12.774zM481.55 64.037h114.964V51.263H481.55v12.774zM481.55 38.405h114.964V25.632H481.55v12.773zM595.467 12.774H480.503V0h114.964v12.774zM481.55 115.299h114.964v-12.782H481.55v12.782z" fill="#181C20"/><path fill-rule="evenodd" clip-rule="evenodd" d="M480.503 115.678v12.774c7.055 0 12.773-5.719 12.773-12.774h-12.773zm0 25.548V154c21.164 0 38.321-17.157 38.321-38.322H506.05c0 14.11-11.438 25.548-25.547 25.548zm0 38.321v-12.774c28.219 0 51.095-22.875 51.095-51.095h12.774c0 35.275-28.596 63.869-63.869 63.869zm0 12.774v12.774c49.383 0 89.416-40.033 89.416-89.417h-12.774c0 42.329-34.314 76.643-76.642 76.643zm0 25.548v12.773c63.492 0 114.964-51.471 114.964-114.964h-12.774c0 56.438-45.752 102.191-102.19 102.191zM482.142 575.319v-12.774c-7.054 0-12.773 5.719-12.773 12.774h12.773zm0-25.548v-12.774c-21.164 0-38.321 17.157-38.321 38.322h12.774c0-14.11 11.438-25.548 25.547-25.548zm0-38.321v12.773c-28.219 0-51.095 22.876-51.095 51.096h-12.773c0-35.274 28.595-63.869 63.868-63.869zm0-12.774v-12.774c-49.383 0-89.416 40.033-89.416 89.417H405.5c0-42.329 34.314-76.643 76.642-76.643zm0-25.548v-12.773c-63.492 0-114.964 51.471-114.964 114.964h12.774c0-56.439 45.753-102.191 102.19-102.191zM137.843 115.299h12.774c0-7.055-5.719-12.774-12.774-12.774v12.774zm25.548 0h12.773c0-21.165-17.157-38.322-38.321-38.322v12.774c14.109 0 25.548 11.439 25.548 25.548zm38.321 0h-12.774c0-28.22-22.876-51.095-51.095-51.095V51.43c35.274 0 63.869 28.595 63.869 63.869zm12.774 0h12.773c0-49.384-40.033-89.417-89.416-89.417v12.774c42.328 0 76.643 34.314 76.643 76.643zm25.547 0h12.774C252.807 51.806 201.336.335 137.843.335v12.773c56.438 0 102.19 45.752 102.19 102.191zM366.131.335h-12.773c0 7.055 5.718 12.774 12.773 12.774V.335zm-25.547 0H327.81c0 21.164 17.157 38.321 38.321 38.321V25.882c-14.109 0-25.547-11.438-25.547-25.547zm-38.322 0h12.774c0 28.219 22.876 51.095 51.095 51.095v12.774c-35.273 0-63.869-28.595-63.869-63.87zm-12.773 0h-12.774c0 49.383 40.033 89.416 89.416 89.416V76.977c-42.328 0-76.642-34.314-76.642-76.642zm-25.548 0h-12.774c0 63.492 51.472 114.964 114.964 114.964v-12.774c-56.438 0-102.19-45.752-102.19-102.19z" fill="#181C20"/><path d="M482.142 115.004v114.964H367.178c0-63.493 51.472-114.964 114.964-114.964zM482.142 245.929l-15.584-15.584h15.584v15.584zm0 18.075v18.074l-51.733-51.733h18.075l33.658 33.659zm0 36.149v18.075l-87.883-87.883h18.075l69.808 69.808zm-114.964 45.156v-15.585l15.584 15.585h-15.584zm51.734 0h-18.075l-33.659-33.66v-18.074l51.734 51.734zm36.15 0h-18.075L367.178 275.5v-18.075l87.884 87.884zm-78.878-114.964h-9.006v9.005l105.959 105.959h9.005v-9.006L376.184 230.345z" fill="#181C20"/></svg>

<svg width="569" height="462" viewBox="0 0 569 462" fill="none" xmlns="http://www.w3.org/2000/svg">
    <g clip-path="url(#clip0_1008_6545)">
        <path d="M136.79 229.968H21.826V115.004H136.79V229.968ZM482.142 459.978H367.178V345.014H482.142V459.978Z"
              fill="#181C20"/>
        <path d="M481.212 459.978H493.993V447.196H481.212V459.978ZM494.696 447.162H507.478V434.381H494.696V447.162ZM508.187 459.978H520.968V447.196H508.187V459.978ZM481.212 434.346H493.993V421.564H481.212V434.346ZM508.187 434.346H520.968V421.564H508.187V434.346ZM518.984 447.162H531.766V434.381H518.984V447.162ZM494.696 421.53H507.478V408.75H494.696V421.53ZM481.212 408.715H493.993V395.933H481.212V408.715ZM508.187 408.715H520.968V395.933H508.187V408.715ZM518.984 421.53H531.766V408.75H518.984V421.53ZM494.696 395.899H507.478V383.118H494.696V395.899ZM481.212 383.756H493.993V370.975H481.212V383.756ZM508.187 383.756H520.968V370.975H508.187V383.756Z"
              fill="#181C20"/>
        <path d="M518.984 395.899H531.766V383.118H518.984V395.899ZM494.696 370.94H507.478V358.159H494.696V370.94ZM481.212 358.124H493.993V345.343H481.212V358.124ZM508.187 358.124H520.968V345.343H508.187V358.124ZM518.984 370.94H531.766V358.159H518.984V370.94ZM532.47 459.978H545.251V447.196H532.47V459.978ZM545.96 447.162H558.741V434.381H545.96V447.162ZM559.45 459.978H572.231V447.196H559.45V459.978ZM532.47 434.346H545.251V421.564H532.47V434.346ZM559.45 434.346H572.231V421.564H559.45V434.346ZM545.96 421.53H558.741V408.75H545.96V421.53ZM532.47 408.715H545.251V395.933H532.47V408.715ZM559.45 408.715H572.231V395.933H559.45V408.715ZM545.96 395.899H558.741V383.118H545.96V395.899ZM532.47 383.756H545.251V370.975H532.47V383.756ZM559.45 383.756H572.231V370.975H559.45V383.756ZM545.96 370.94H558.741V358.159H545.96V370.94ZM532.47 358.124H545.251V345.343H532.47V358.124ZM559.45 358.124H572.231V345.343H559.45V358.124ZM455.504 115.299H442.73V0.334999H455.504V115.299ZM431.215 115.299H418.442V0.334999H431.215V115.299ZM404.24 115.299H391.467V0.334999H404.24V115.299ZM379.953 115.299H367.178V0.334999H379.953V115.299ZM482.486 115.299H469.705V0.334999H482.486V115.299Z"
              fill="#181C20"/>
        <path d="M481.55 89.669H596.514V76.895H481.55V89.669ZM481.55 64.037H596.514V51.263H481.55V64.037ZM481.55 38.405H596.514V25.632H481.55V38.405ZM595.467 12.774H480.503V0H595.467V12.774ZM481.55 115.299H596.514V102.517H481.55V115.299Z"
              fill="#181C20"/>
        <path fill-rule="evenodd" clip-rule="evenodd"
              d="M480.503 115.678V128.452C487.558 128.452 493.276 122.733 493.276 115.678H480.503ZM480.503 141.226V154C501.667 154 518.824 136.843 518.824 115.678H506.05C506.05 129.788 494.612 141.226 480.503 141.226ZM480.503 179.547V166.773C508.722 166.773 531.598 143.898 531.598 115.678H544.372C544.372 150.953 515.776 179.547 480.503 179.547ZM480.503 192.321V205.095C529.886 205.095 569.919 165.062 569.919 115.678H557.145C557.145 158.007 522.831 192.321 480.503 192.321ZM480.503 217.869V230.642C543.995 230.642 595.467 179.171 595.467 115.678H582.693C582.693 172.116 536.941 217.869 480.503 217.869ZM482.142 575.319V562.545C475.088 562.545 469.369 568.264 469.369 575.319H482.142ZM482.142 549.771V536.997C460.978 536.997 443.821 554.154 443.821 575.319H456.595C456.595 561.209 468.033 549.771 482.142 549.771ZM482.142 511.45V524.223C453.923 524.223 431.047 547.099 431.047 575.319H418.274C418.274 540.045 446.869 511.45 482.142 511.45ZM482.142 498.676V485.902C432.759 485.902 392.726 525.935 392.726 575.319H405.5C405.5 532.99 439.814 498.676 482.142 498.676ZM482.142 473.128V460.355C418.65 460.355 367.178 511.826 367.178 575.319H379.952C379.952 518.88 425.705 473.128 482.142 473.128ZM137.843 115.299H150.617C150.617 108.244 144.898 102.525 137.843 102.525V115.299ZM163.391 115.299H176.164C176.164 94.134 159.007 76.977 137.843 76.977V89.751C151.952 89.751 163.391 101.19 163.391 115.299ZM201.712 115.299H188.938C188.938 87.079 166.062 64.204 137.843 64.204V51.43C173.117 51.43 201.712 80.025 201.712 115.299ZM214.486 115.299H227.259C227.259 65.915 187.226 25.882 137.843 25.882V38.656C180.171 38.656 214.486 72.97 214.486 115.299ZM240.033 115.299H252.807C252.807 51.806 201.336 0.335 137.843 0.335V13.108C194.281 13.108 240.033 58.86 240.033 115.299ZM366.131 0.335H353.358C353.358 7.39 359.076 13.109 366.131 13.109V0.335ZM340.584 0.335H327.81C327.81 21.499 344.967 38.656 366.131 38.656V25.882C352.022 25.882 340.584 14.444 340.584 0.335ZM302.262 0.335H315.036C315.036 28.554 337.912 51.43 366.131 51.43V64.204C330.858 64.204 302.262 35.609 302.262 0.334V0.335ZM289.489 0.335H276.715C276.715 49.718 316.748 89.751 366.131 89.751V76.977C323.803 76.977 289.489 42.663 289.489 0.335ZM263.941 0.335H251.167C251.167 63.827 302.639 115.299 366.131 115.299V102.525C309.693 102.525 263.941 56.773 263.941 0.335Z"
              fill="#181C20"/>
        <path d="M482.142 115.004V229.968H367.178C367.178 166.475 418.65 115.004 482.142 115.004ZM482.142 245.929L466.558 230.345H482.142V245.929ZM482.142 264.004V282.078L430.409 230.345H448.484L482.142 264.004ZM482.142 300.153V318.228L394.259 230.345H412.334L482.142 300.153ZM367.178 345.309V329.724L382.762 345.309H367.178ZM418.912 345.309H400.837L367.178 311.649V293.575L418.912 345.309ZM455.062 345.309H436.987L367.178 275.5V257.425L455.062 345.309ZM376.184 230.345H367.178V239.35L473.137 345.309H482.142V336.303L376.184 230.345Z"
              fill="#181C20"/>
    </g>
    <defs>
        <clipPath id="clip0_1008_6545">
            <rect width="569" height="462" fill="white"/>
        </clipPath>
    </defs>
</svg>
